outline/svg/shutter_speed.svg

<svg xmlns="http://www.w3.org/2000/svg" width="24" height="24"><path fill="none" d="M0 0h24v24H0V0z"/><g fill="currentColor"><path d="M15 1H9v2h6V1zm4.03 6.39l1.42-1.42c-.43-.51-.9-.99-1.41-1.41l-1.42 1.42A8.962 8.962 0 0 0 12 4c-4.97 0-9 4.03-9 9s4.02 9 9 9a8.994 8.994 0 0 0 7.03-14.61zM12 20c-3.87 0-7-3.13-7-7s3.13-7 7-7 7 3.13 7 7-3.13 7-7 7zm-.32-5H6.35a5.992 5.992 0 0 0 3.41 3.56l-.11-.06 2.03-3.5zm5.97-4a6.012 6.012 0 0 0-3.34-3.54L12.26 11h5.39zm-7.04 7.83c.45.11.91.17 1.39.17 1.34 0 2.57-.45 3.57-1.19l-2.11-3.9-2.85 4.92zM7.55 8.99A5.965 5.965 0 0 0 6 13c0 .34.04.67.09 1h4.72L7.55 8.99zm8.79 8.14A5.94 5.94 0 0 0 18 13c0-.34-.04-.67-.09-1h-4.34l2.77 5.13zm-3.01-9.98C12.9 7.06 12.46 7 12 7c-1.4 0-2.69.49-3.71 1.29l2.32 3.56 2.72-4.7z"/></g></svg>

<?xml version="1.0" encoding="utf-8"?>
<!-- Generator: Adobe Illustrator 19.1.0, SVG Export Plug-In . SVG Version: 6.00 Build 0)  -->
<svg version="1.1" xmlns="http://www.w3.org/2000/svg" xmlns:xlink="http://www.w3.org/1999/xlink" x="0px" y="0px" width="24px"
	 height="24px" viewBox="0 0 24 24" enable-background="new 0 0 24 24" xml:space="preserve">
<g id="Bounding_Boxes">
	<g id="ui_x5F_spec_x5F_header_copy_2">
	</g>
	<path fill="none" d="M0,0h24v24H0V0z"/>
</g>
<g id="Outline" fill="currentColor">
	<g id="ui_x5F_spec_x5F_header">
	</g>
	<path d="M15,1H9v2h6V1z M19.03,7.39l1.42-1.42c-0.43-0.51-0.9-0.99-1.41-1.41l-1.42,1.42C16.07,4.74,14.12,4,12,4
		c-4.97,0-9,4.03-9,9s4.02,9,9,9s9-4.03,9-9C21,10.88,20.26,8.93,19.03,7.39z M12,20c-3.87,0-7-3.13-7-7s3.13-7,7-7s7,3.13,7,7
		S15.87,20,12,20z M11.68,15H6.35c0.57,1.62,1.82,2.92,3.41,3.56L9.65,18.5L11.68,15z M17.65,11c-0.57-1.6-1.78-2.89-3.34-3.54
		L12.26,11H17.65z M10.61,18.83C11.06,18.94,11.52,19,12,19c1.34,0,2.57-0.45,3.57-1.19l-2.11-3.9L10.61,18.83z M7.55,8.99
		C6.59,10.05,6,11.46,6,13c0,0.34,0.04,0.67,0.09,1h4.72L7.55,8.99z M16.34,17.13C17.37,16.06,18,14.6,18,13
		c0-0.34-0.04-0.67-0.09-1h-4.34L16.34,17.13z M13.33,7.15C12.9,7.06,12.46,7,12,7c-1.4,0-2.69,0.49-3.71,1.29l2.32,3.56L13.33,7.15
		z"/>
</g>
</svg>
